X:1434
L:1/8
M:2/4
K:C
"C" !>!e2 d/B/c |"G7" !>!a2 g/^c/d |"C" ed/c/ Bc |"G7" dG dG |"C" !>!e2 d/B/c |"G7" !>!a2 g/^c/d | 
"C" ed/c/"G7" c/B/A/B/ |"C" cc c z ::"E7" eB f/e/d |"Am" cB A2 |"D7" dA e/d/c |"G" BA G2 | 
"G7" g2 ^f/g/a/g/ |"C" c'2 ee |"G7" g2 dd |"C" e2 cc |"G7" g2 ^f/g/a/g/ |"C" c'2 ee | 
"Dm" ad/e/"G7" fA/B/ |"C" cc c z ::[K:F]"F" .a !>!a2 .a |"Gm/Bb" ag/^f/ gg/a/ |"C7" be be | 
"F" gf/e/ f/a/c |"D7" .a !>!a2 .a |"Gm" ag/^f/ gg/a/ |"C7" bc gc |"F" ff f z :|

